X:1
T:Mjusical Offering Canone Inverso (A = 415 Hz)
T:Johann Sebastian Bach
T:BWV 1079
%%score { 1 | 2 }
L:1/8
M:4/4
K:D
V:1 treble nm="Harp"
V:2 bass 
V:1
 B,4 D4 | F4 G4 | ^A,4 z2 F2- | F2 =F4 E2- | E2 ^D4 =D2- | D2 C2 =C2 B,2 | ^A,2 F,2 B,2 E2 | %7
 D4 C4 | B,4 D4 | FEFB FDCD | EF^G^A BDEF | GCDE FEDC | DEFG AGFE | FGAB =cAGF | ^G^ABc dBAG | %15
 ^ABcd ecFc | Bcde dcB^A | B2 F2 D2 !fermata!B,2 | B,4 D4 | F4 G4 | ^A,4 z2 F2- | F2 =F4 E2- | %22
 E2 ^D4 =D2- | D2 C2 =C2 B,2 | ^A,2 F,2 B,2 E2 | D4 C4 | B,4 D4 | FEFB FDCD | EF^G^A BDEF | %29
 GCDE FEDC | DEFG AGFE | FGAB =cAGF | ^G^ABc dBAG | ^ABcd ecFc | Bcde dcB^A | %35
 B2 F2 D2 !fermata!B,2 | B,4 D4 | F4 G4 | ^A,4 z2 F2- | F2 =F4 E2- | E2 ^D4 =D2- | D2 C2 =C2 B,2 | %42
 ^A,2 F,2 B,2 E2 | D4 C4 | B,4 D4 | FEFB FDCD | EF^G^A BDEF | GCDE FEDC | DEFG AGFE | FGAB =cAGF | %50
 ^G^ABc dBAG | ^ABcd ecFc | Bcde dcB^A | B2 F2 D2 !fermata!B,2 | B,4 D4 | F4 G4 | ^A,4 z2 F2- | %57
 F2 =F4 E2- | E2 ^D4 =D2- | D2 C2 =C2 B,2 | ^A,2 F,2 B,2 E2 | D4 C4 | B,4 D4 | FEFB FDCD | %64
 EF^G^A BDEF | GCDE FEDC | DEFG AGFE | FGAB =cAGF | ^G^ABc dBAG | ^ABcd ecFc | Bcde dcB^A | %71
 B2 F2 D2 !fermata!B,2- | B,8 |] %73
V:2
 z8 | z8 | z8 | z8 | z8 | z8 | z8 | z8 | z8 | z8 | z8 | z8 | z8 | z8 | z8 | z8 | z8 | z8 | %18
 B,,2 D,2 F,2 B,2 | ^A,B,CD EDCB, | CF,CE DCB,^A, | ^G,^A,B,D CB,A,G, | F,G,A,=C B,A,G,F, | %23
 E,F,G,A, G,F,E,D, | C,D,E,F, E,D,C,G, | F,E,D,B, ^A,^G,F,E, | D,C,D,F, B,G,E,F, | D,4 B,,4 | %28
 C,4 D,4 | E,2 B,,2 F,,2 ^A,,2 | B,,2 =C,2 ^C,2 D,2- | D,2 ^D,4 E,2- | E,2 =F,4 _G,2- | %33
 G,2 z2 ^A,,4 | G,4 F,4 | D,4 B,,4 | z8 | z8 | z8 | z8 | z8 | z8 | z8 | z8 | z8 | z8 | z8 | z8 | %48
 z8 | z8 | z8 | z8 | z8 | z8 | B,,2 D,2 F,2 B,2 | ^A,B,CD EDCB, | CF,CE DCB,^A, | %57
 ^G,^A,B,D CB,A,G, | F,G,A,=C B,A,G,F, | E,F,G,A, G,F,E,D, | C,D,E,F, E,D,C,G, | %61
 F,E,D,B, ^A,^G,F,E, | D,C,D,F, B,G,E,F, | D,4 B,,4 | C,4 D,4 | E,2 B,,2 F,,2 ^A,,2 | %66
 B,,2 =C,2 ^C,2 D,2- | D,2 ^D,4 E,2- | E,2 =F,4 _G,2- | G,2 z2 ^A,,4 | G,4 F,4 | D,4 B,,4- | %72
 B,,8 |] %73

